material/.icons/material/car-side.svg

<svg xmlns="http://www.w3.org/2000/svg" viewBox="0 0 24 24"><path d="M16 6l3 4h2c1.11 0 2 .89 2 2v3h-2a3 3 0 01-3 3 3 3 0 01-3-3H9a3 3 0 01-3 3 3 3 0 01-3-3H1v-3c0-1.11.89-2 2-2l3-4h10m-5.5 1.5H6.75L4.86 10h5.64V7.5m1.5 0V10h5.14l-1.89-2.5H12m-6 6A1.5 1.5 0 004.5 15 1.5 1.5 0 006 16.5 1.5 1.5 0 007.5 15 1.5 1.5 0 006 13.5m12 0a1.5 1.5 0 00-1.5 1.5 1.5 1.5 0 001.5 1.5 1.5 1.5 0 001.5-1.5 1.5 1.5 0 00-1.5-1.5z"/></svg>

<?xml version="1.0" encoding="UTF-8"?><!DOCTYPE svg PUBLIC "-//W3C//DTD SVG 1.1//EN" "http://www.w3.org/Graphics/SVG/1.1/DTD/svg11.dtd"><svg xmlns="http://www.w3.org/2000/svg" xmlns:xlink="http://www.w3.org/1999/xlink" version="1.1" id="mdi-car-side" width="24" height="24" viewBox="0 0 24 24"><path d="M16,6L19,10H21C22.11,10 23,10.89 23,12V15H21A3,3 0 0,1 18,18A3,3 0 0,1 15,15H9A3,3 0 0,1 6,18A3,3 0 0,1 3,15H1V12C1,10.89 1.89,10 3,10L6,6H16M10.5,7.5H6.75L4.86,10H10.5V7.5M12,7.5V10H17.14L15.25,7.5H12M6,13.5A1.5,1.5 0 0,0 4.5,15A1.5,1.5 0 0,0 6,16.5A1.5,1.5 0 0,0 7.5,15A1.5,1.5 0 0,0 6,13.5M18,13.5A1.5,1.5 0 0,0 16.5,15A1.5,1.5 0 0,0 18,16.5A1.5,1.5 0 0,0 19.5,15A1.5,1.5 0 0,0 18,13.5Z" /></svg>
